icons/referral.svg

<svg width="48" height="48" viewBox="0 0 48 48" fill="none" xmlns="http://www.w3.org/2000/svg">
<path d="M16 9V12H13V14H16V17H18V14H21V12H18V9H16Z" fill="black"/>
<path fill-rule="evenodd" clip-rule="evenodd" d="M13 6C11.3431 6 10 7.34315 10 9V10H6V29H28V10H24V9C24 7.34315 22.6569 6 21 6H13ZM21 20C22.6569 20 24 18.6569 24 17V16H26V27H21V21H13V27H8V16H10V17C10 18.6569 11.3431 20 13 20H21ZM12 9C12 8.44772 12.4477 8 13 8H21C21.5523 8 22 8.44772 22 9V17C22 17.5523 21.5523 18 21 18H13C12.4477 18 12 17.5523 12 17V9ZM8 12H10V14H8V12ZM26 14H24V12H26V14ZM19 23V27H15V23H19Z" fill="black"/>
<path fill-rule="evenodd" clip-rule="evenodd" d="M30 28C30 25.7902 31.7902 24 34 24C36.2098 24 38 25.7902 38 28C38 30.2098 36.2098 32 34 32C31.7902 32 30 30.2098 30 28ZM34 26C32.8948 26 32 26.8948 32 28C32 29.1052 32.8948 30 34 30C35.1052 30 36 29.1052 36 28C36 26.8948 35.1052 26 34 26Z" fill="black"/>
<path fill-rule="evenodd" clip-rule="evenodd" d="M34 33C31.33 33 26 34.4618 26 37.3636V40H17C16.2714 40 15.7984 39.7367 15.4974 39.3981C15.1801 39.0412 15 38.5369 15 38V34.4142L18.2929 37.7071L19.7071 36.2929L14 30.5858L8.29289 36.2929L9.70711 37.7071L13 34.4142V38C13 38.9631 13.3199 39.9588 14.0026 40.7269C14.7016 41.5133 15.7286 42 17 42H42V37.3636C42 34.4618 36.67 33 34 33ZM28.2936 36.867C28.0106 37.1519 28 37.3082 28 37.3636V40H40V37.3636C40 37.3082 39.9894 37.1519 39.7064 36.867C39.4052 36.5637 38.9011 36.2325 38.2004 35.9263C36.788 35.3091 35.0608 35 34 35C32.9392 35 31.212 35.3091 29.7996 35.9263C29.0989 36.2325 28.5948 36.5637 28.2936 36.867Z" fill="black"/>
</svg>

<svg
  xmlns="http://www.w3.org/2000/svg"
  width="24"
  height="24"
  viewBox="0 0 24 24"
  fill="none"
  stroke="currentColor"
  stroke-width="2"
  stroke-linecap="round"
  stroke-linejoin="round"
>
  <path d="M16 9v3h-3v2h3v3h2v-3h3v-2h-3V9z" />
  <path
    fill-rule="evenodd"
    d="M13 6a3 3 0 0 0-3 3v1H6v19h22V10h-4V9a3 3 0 0 0-3-3zm8 14a3 3 0 0 0 3-3v-1h2v11h-5v-6h-8v6H8V16h2v1a3 3 0 0 0 3 3zM12 9a1 1 0 0 1 1-1h8a1 1 0 0 1 1 1v8a1 1 0 0 1-1 1h-8a1 1 0 0 1-1-1zm-4 3h2v2H8zm18 2h-2v-2h2zm-7 9v4h-4v-4z"
    clip-rule="evenodd"
  />
  <path
    fill-rule="evenodd"
    d="M30 28a4 4 0 0 1 4-4 4 4 0 0 1 4 4 4 4 0 0 1-4 4 4 4 0 0 1-4-4m4-2a2 2 0 1 0 0 4 2 2 0 1 0 0-4"
    clip-rule="evenodd"
  />
  <path
    fill-rule="evenodd"
    d="M34 33c-2.67 0-8 1.462-8 4.364V40h-9c-.729 0-1.202-.263-1.503-.602C15.18 39.041 15 38.537 15 38v-3.586l3.293 3.293 1.414-1.414L14 30.586l-5.707 5.707 1.414 1.414L13 34.414V38c0 .963.32 1.959 1.003 2.727C14.702 41.513 15.729 42 17 42h25v-4.636C42 34.462 36.67 33 34 33m-5.706 3.867c-.283.285-.294.441-.294.497V40h12v-2.636c0-.056-.01-.212-.294-.497-.3-.303-.805-.634-1.506-.94C36.788 35.308 35.06 35 34 35s-2.788.31-4.2.926c-.701.306-1.205.638-1.506.941"
    clip-rule="evenodd"
  />
</svg>
